X:1
T: Viscount Seafield's Jig
C:Bruce Shawyer
R:Jig
I:speed 180
K:A
M:6/8
L:1/16
A6 A4c2|e2c2A2 e2c2A2|B,4B2 B4c2|d2e2f2 d2c2B2|A,4A2 A4c2|e2c2A2 e2c2A2|F2G2A2 B2c2A2|G2F2E2 D2C2B,2|
A,4A2 A4c2|e2c2A2 e2c2A2|B,4B2 B4c2|d2e2f2 d2c2B2|e2f2g2 a2g2f2|e2d2c2 c2B2A2|d2c2B2 E2F2G2|A6 A,6|
e6 c4a2|e2d2c2 c2B2A2|d6 B4c2|d2e2f2 d2c2B2|e4a2 c4A2|e4c2 c2B2A2|F2G2A2 B2c2A2|G2F2E2 D2C2B,2|
A,4e2 c4a2|e2d2c2 c2B2A2|d6 B4c2|d2e2f2 d2c2B2|e2f2g2 a2g2f2|e2d2c2 c2B2A2|d2c2B2 E2F2G2|A6 A,6||
